build/images/icon/btn.svg

<svg width="40" height="39" viewBox="0 0 40 39" fill="none" xmlns="http://www.w3.org/2000/svg">
<g filter="url(#filter0_d)">
<path d="M31.2289 38.2496L27.1529 38.284C25.7927 38.3232 24.4372 38.3379 23.0769 38.4017C20.3612 38.4997 17.6454 38.6518 14.9297 38.7646C13.5694 38.8234 12.2139 38.897 10.8584 38.9264L8.82273 38.9853C8.47563 38.9853 8.15668 39 7.79083 38.9951L7.21391 38.9706L6.63698 38.8872C5.1079 38.6027 3.69608 37.72 2.71109 36.4693C1.71672 35.2236 1.19608 33.5905 1.21485 31.9868L1.47282 23.4679L1.60884 19.206L1.68858 14.9441C1.69327 13.5267 1.71672 12.1045 1.70734 10.6822L1.69796 8.5537L1.69327 7.48455L1.71203 6.92545L1.78708 6.37126C2.04505 4.89995 2.78614 3.51692 3.87432 2.51643C4.96719 1.52084 6.40715 0.927412 7.88933 0.883273C10.6051 0.799899 13.3208 0.692003 16.0366 0.63315C18.7524 0.564489 21.4681 0.530159 24.1839 0.495828L28.2552 0.446785L30.2908 0.422263C30.6379 0.422263 30.9569 0.40755 31.3227 0.412454L31.9137 0.436976L32.5 0.525254C34.0666 0.819516 35.5113 1.71211 36.5244 2.98725C37.5375 4.26238 38.1192 5.91515 38.1145 7.58264C38.0816 10.4223 38.0816 13.2619 38.016 16.1015C37.9738 18.9411 37.8565 21.7808 37.7299 24.6204L37.5422 28.8823L37.4484 31.0108C37.4297 31.3688 37.425 31.717 37.4062 32.0799L37.3593 32.6341L37.2608 33.1834C36.9325 34.6253 36.1586 35.9348 35.0657 36.8372C33.9822 37.7494 32.6126 38.2594 31.2289 38.2496ZM31.2289 38.0535C32.5657 38.0289 33.8884 37.5238 34.8968 36.6165C35.8912 35.6994 36.5807 34.434 36.7683 33.0853L36.8246 32.5802L36.8293 32.075C36.8246 31.7317 36.8058 31.3688 36.7965 31.0157L36.7026 28.8872L36.515 24.6253C36.3884 21.7857 36.2711 18.946 36.2289 16.1064C36.1632 13.2668 36.1679 10.4272 36.1304 7.58754C36.1117 6.41049 35.7223 5.24325 35 4.33104C34.273 3.41883 33.2552 2.78617 32.1482 2.54095L31.7308 2.46738L31.2993 2.43305C30.9897 2.41834 30.6285 2.42324 30.2955 2.41834L28.2599 2.39382L24.1886 2.34477C21.4728 2.31044 18.7571 2.27611 16.0413 2.20745C13.3255 2.1486 10.6098 2.0407 7.89402 1.95733C6.65575 1.9279 5.39871 2.34968 4.39496 3.16871C3.39121 3.98283 2.67357 5.1844 2.4156 6.49877L2.33586 6.99411L2.30303 7.49926C2.28895 7.84257 2.29833 8.20549 2.29364 8.5586L2.28426 10.6871C2.27488 12.1094 2.29833 13.5267 2.30303 14.949L2.38276 19.2109L2.51879 23.4728L2.77676 31.9917C2.8049 33.2276 3.25987 34.4144 3.99627 35.361C4.75143 36.2977 5.80678 36.9402 6.94655 37.2001L7.37807 37.2737L7.81428 37.3031C8.12854 37.3178 8.48501 37.3129 8.82273 37.3227L10.8584 37.3816C12.2139 37.411 13.5741 37.4845 14.9297 37.5434C17.6454 37.6562 20.3612 37.8082 23.0769 37.9063C24.4372 37.9701 25.7927 37.9848 27.1529 38.024L31.2289 38.0535Z" fill="url(#paint0_linear)"/>
</g>
<defs>
<filter id="filter0_d" x="-2.78564" y="0.411453" width="44.9001" height="46.5846" filterUnits="userSpaceOnUse" color-interpolation-filters="sRGB">
<feFlood flood-opacity="0" result="BackgroundImageFix"/>
<feColorMatrix in="SourceAlpha" type="matrix" values="0 0 0 0 0 0 0 0 0 0 0 0 0 0 0 0 0 0 127 0"/>
<feOffset dy="4"/>
<feGaussianBlur stdDeviation="2"/>
<feColorMatrix type="matrix" values="0 0 0 0 0 0 0 0 0 0 0 0 0 0 0 0 0 0 0.25 0"/>
<feBlend mode="normal" in2="BackgroundImageFix" result="effect1_dropShadow"/>
<feBlend mode="normal" in="SourceGraphic" in2="effect1_dropShadow" result="shape"/>
</filter>
<linearGradient id="paint0_linear" x1="1.05786" y1="19.7062" x2="38.0624" y2="19.7062" gradientUnits="userSpaceOnUse">
<stop stop-color="#AF0036"/>
<stop offset="1" stop-color="#D54E4E"/>
</linearGradient>
</defs>
</svg>

<svg width="40" height="39" fill="none" xmlns="http://www.w3.org/2000/svg"><g filter="url(#filter0_d)"><path d="M31.229 38.25l-4.076.034c-1.36.04-2.716.054-4.076.118-2.716.098-5.432.25-8.147.363-1.36.058-2.716.132-4.072.161l-2.035.06c-.347 0-.666.014-1.032.01l-.577-.025-.577-.084c-1.53-.284-2.94-1.167-3.926-2.418-.994-1.245-1.515-2.879-1.496-4.482l.258-8.52.136-4.261.08-4.262c.004-1.417.028-2.84.018-4.262l-.009-2.128-.005-1.07.019-.559.075-.554a6.891 6.891 0 012.087-3.855A6.285 6.285 0 017.89.883C10.605.8 13.321.692 16.037.633 18.752.564 21.468.53 24.184.496l4.071-.05 2.036-.024c.347 0 .666-.014 1.032-.01l.59.025.587.088c1.567.295 3.011 1.187 4.024 2.462a7.434 7.434 0 011.59 4.596c-.032 2.84-.032 5.679-.098 8.519-.042 2.84-.16 5.679-.286 8.518l-.188 4.262-.094 2.129c-.018.358-.023.706-.042 1.069l-.047.554-.098.55c-.329 1.441-1.102 2.75-2.195 3.653-1.084.912-2.453 1.422-3.837 1.413zm0-.197a5.67 5.67 0 003.668-1.436c.994-.918 1.684-2.183 1.871-3.532l.057-.505.004-.505c-.004-.343-.023-.706-.032-1.06l-.094-2.128-.188-4.262c-.127-2.84-.244-5.679-.286-8.519-.066-2.84-.061-5.679-.099-8.518-.018-1.178-.408-2.345-1.13-3.257a5.071 5.071 0 00-2.852-1.79l-.417-.074-.432-.034c-.31-.015-.67-.01-1.003-.015l-2.036-.024-4.071-.05a644.795 644.795 0 01-8.148-.137c-2.716-.058-5.431-.166-8.147-.25A5.366 5.366 0 004.395 3.17c-1.004.814-1.721 2.015-1.98 3.33l-.08.495-.032.505c-.014.344-.005.706-.01 1.06l-.009 2.128c-.01 1.422.014 2.84.019 4.262l.08 4.262.136 4.262.258 8.519a5.742 5.742 0 001.22 3.369 5.325 5.325 0 002.95 1.84l.431.073.436.03c.315.014.671.009 1.009.019l2.035.059c1.356.029 2.716.102 4.072.161 2.715.113 5.431.265 8.147.363 1.36.064 2.716.079 4.076.118l4.076.03z" fill="url(#paint0_linear)"/></g><defs><linearGradient id="paint0_linear" x1="1.058" y1="19.706" x2="38.062" y2="19.706" gradientUnits="userSpaceOnUse"><stop stop-color="#AF0036"/><stop offset="1" stop-color="#D54E4E"/></linearGradient><filter id="filter0_d" x="-2.786" y=".411" width="44.9" height="46.585" filterUnits="userSpaceOnUse" color-interpolation-filters="sRGB"><feFlood flood-opacity="0" result="BackgroundImageFix"/><feColorMatrix in="SourceAlpha" values="0 0 0 0 0 0 0 0 0 0 0 0 0 0 0 0 0 0 127 0"/><feOffset dy="4"/><feGaussianBlur stdDeviation="2"/><feColorMatrix values="0 0 0 0 0 0 0 0 0 0 0 0 0 0 0 0 0 0 0.25 0"/><feBlend in2="BackgroundImageFix" result="effect1_dropShadow"/><feBlend in="SourceGraphic" in2="effect1_dropShadow" result="shape"/></filter></defs></svg>
